X:79
T: Maedchen und Hasel
N: Q0138B
O: Mitteleuropa, Deutschland / UdSSR, Ostpreussen, Kr. Friedland,
R: Ballade, verlorene Unschuld, Moral
M: 3/4
L: 1/16
K: G
D2 | D2G2G6E2 | G2F2D2D2z2
D2 | D2F2A4E4 | E4D4z2
D2 | D2c2c6A2 | c2B2G4z2
B2 | B2AAE6A2 | A4G4z2
D2 | D2c2c6A2 | c2B2G4z2
B2 | B2AAE6A2 | A4G4z2

@@@ Tune index: 1577
